X:1
T:Title
%%score 1 { 2 | 3 }
L:1/8
Q:1/4=110
M:4/4
K:A
V:1 treble nm="Grand Piano, Unnamed-000"
V:2 bass nm="Choir Pad, Lake Enon"
V:3 bass 
V:1
 [CE]2 [CE]2 [Ec]2 [Ec]2 | [DB]2 [CA]6 | E2 E2 [Ed]2 [Ed]2 | [Ec]2 [EB]6 | %4
w: By~Isaac~Baker~Woodbury,~1856 * * *||||
 [EB]2 [Ec]2 [Ee]2 [Ee]2 | [Ec]2 [Ec]2 [EA]2 [FA]2 | [DF]2 [CE]2 [Ec]2 [Ec]2 | [DB]2 [CA]6- | %8
w: ||||
 [CA]2 z2 z4 |] %9
w: |
V:2
 A,2 A,2 A,2 A,2 | A,2 A,6 | C2 C2 B,2 B,2 | A,2 G,6 | G,2 A,2[K:treble] C2 C2 | A,2 E2 E2 D2 | %6
 A,2 A,2 A,2 A,2 | G,2 A,6- | A,2 z2 z4 |] %9
V:3
 A,,2 A,,2 A,,2 A,,2 | A,,2 A,,6 | A,2 A,2 G,2 E,2 | z2 E,6 | E,2 z2 A,2 A,2 | z2 A,2 C,2 D,2 | %6
 D,2 E,2 E,2 E,2 | E,2 A,,6- | A,,2 z2 z4 |] %9

